;FLAVOR:UltiGCode
;TIME:7156
;MATERIAL:9189
;MATERIAL2:0
;NOZZLE_DIAMETER:0.400000
;NOZZLE_DIAMETER2:0.400000

;Layer count: 19
;LAYER:0
M107
G0 F9000 X50.503 Y70.202 Z0.300
;TYPE:SKIRT
G1 F1200 X51.404 Y69.713 E0.12302
G1 X52.313 Y69.401 E0.23834
G1 X52.944 Y69.268 E0.31573
G1 X53.768 Y69.200 E0.41494
G1 X169.232 Y69.200 E14.27062
G1 X170.056 Y69.268 E14.36984
G1 X170.687 Y69.401 E14.44722
G1 X171.535 Y69.692 E14.55481
G1 X172.113 Y69.976 E14.63209
G1 X172.914 Y70.499 E14.74688
G1 X173.670 Y71.195 E14.87020
G1 X174.298 Y72.003 E14.99300
G1 X174.787 Y72.904 E15.11601
G1 X175.099 Y73.813 E15.23134
G1 X175.232 Y74.447 E15.30908
G1 X175.299 Y75.270 E15.40816
G1 X175.299 Y147.730 E24.10336
G1 X175.232 Y148.553 E24.20245
G1 X175.099 Y149.187 E24.28019
G1 X174.808 Y150.035 E24.38777
G1 X174.524 Y150.613 E24.46505
G1 X174.001 Y151.414 E24.57985
G1 X173.305 Y152.170 E24.70316
G1 X172.497 Y152.798 E24.82596
G1 X171.596 Y153.287 E24.94898
G1 X170.687 Y153.599 E25.06430
G1 X170.056 Y153.732 E25.14169
G1 X169.232 Y153.800 E25.24090
G1 X53.768 Y153.800 E39.09658
G1 X52.944 Y153.732 E39.19580
G1 X52.313 Y153.599 E39.27318
G1 X51.465 Y153.308 E39.38077
G1 X50.887 Y153.024 E39.45805
G1 X50.086 Y152.501 E39.57284
G1 X49.330 Y151.805 E39.69616
G1 X48.702 Y150.997 E39.81896
G1 X48.213 Y150.096 E39.94198
G1 X47.901 Y149.187 E40.05730
G1 X47.768 Y148.553 E40.13504
G1 X47.701 Y147.730 E40.23412
G1 X47.701 Y75.270 E48.92932
G1 X47.768 Y74.447 E49.02841
G1 X47.901 Y73.813 E49.10615
G1 X48.192 Y72.965 E49.21373
G1 X48.476 Y72.387 E49.29101
G1 X48.999 Y71.586 E49.40581
G1 X49.695 Y70.830 E49.52912
G1 X50.503 Y70.202 E49.65192
G10
G0 F9000 X52.592 Y73.391
;TYPE:WALL-INNER
G11
G1 F1200 X52.937 Y73.204 E49.69901
G1 X53.322 Y73.072 E49.74785
G1 X53.491 Y73.036 E49.76859
G1 X53.927 Y73.000 E49.82108
G1 X169.073 Y73.000 E63.63860
G1 X169.509 Y73.036 E63.69110
G1 X169.678 Y73.072 E63.71184
G1 X170.070 Y73.206 E63.76155
G1 X170.233 Y73.286 E63.78334
G1 X170.574 Y73.509 E63.83223
G1 X170.861 Y73.774 E63.87911
G1 X171.109 Y74.092 E63.92750
G1 X171.296 Y74.437 E63.97459
G1 X171.428 Y74.822 E64.02343
G1 X171.464 Y74.991 E64.04417
G1 X171.499 Y75.424 E64.09630
G1 X171.499 Y147.576 E72.75454
G1 X171.464 Y148.009 E72.80666
G1 X171.428 Y148.178 E72.82740
G1 X171.294 Y148.570 E72.87711
G1 X171.214 Y148.733 E72.89890
G1 X170.991 Y149.074 E72.94779
G1 X170.726 Y149.361 E72.99467
G1 X170.408 Y149.609 E73.04306
G1 X170.063 Y149.796 E73.09015
G1 X169.678 Y149.928 E73.13899
G1 X169.509 Y149.964 E73.15973
G1 X169.073 Y150.000 E73.21223
G1 X53.927 Y150.000 E87.02975
G1 X53.491 Y149.964 E87.08224
G1 X53.322 Y149.928 E87.10298
G1 X52.930 Y149.794 E87.15269
G1 X52.767 Y149.714 E87.17448
G1 X52.426 Y149.491 E87.22337
G1 X52.139 Y149.226 E87.27025
G1 X51.891 Y148.908 E87.31864
G1 X51.704 Y148.563 E87.36573
G1 X51.572 Y148.178 E87.41457
G1 X51.536 Y148.009 E87.43531
G1 X51.501 Y147.576 E87.48744
G1 X51.501 Y75.424 E96.14568
G1 X51.536 Y74.991 E96.19781
G1 X51.572 Y74.822 E96.21854
G1 X51.706 Y74.430 E96.26825
G1 X51.786 Y74.267 E96.29004
G1 X52.009 Y73.926 E96.33894
G1 X52.274 Y73.639 E96.38581
G1 X52.592 Y73.391 E96.43421
G10
G0 F9000 X60.150 Y92.158
G11
G1 F1200 X59.583 Y92.456 E96.51107
G1 X59.179 Y92.742 E96.57047
G1 X58.759 Y93.180 E96.64329
G1 X58.505 Y93.496 E96.69194
G1 X58.207 Y94.136 E96.77666
G1 X58.054 Y94.614 E96.83688
G1 X57.968 Y95.277 E96.91711
G1 X57.948 Y95.714 E96.96960
G1 X58.014 Y96.423 E97.05505
G1 X58.139 Y96.947 E97.11970
G1 X58.348 Y97.410 E97.18066
G1 X58.688 Y97.969 E97.25917
G1 X59.244 Y98.499 E97.35135
G1 X59.692 Y98.815 E97.41713
G1 X60.010 Y98.964 E97.45927
G1 X59.799 Y99.032 E97.48588
G1 X59.417 Y99.228 E97.53740
G1 X58.835 Y99.617 E97.62140
G1 X58.386 Y100.209 E97.71056
G1 X58.187 Y100.573 E97.76035
G1 X58.063 Y100.955 E97.80854
G1 X57.989 Y101.391 E97.86161
G1 X57.951 Y101.827 E97.91413
G1 X58.018 Y102.485 E97.99350
G1 X58.217 Y103.087 E98.06958
G1 X58.351 Y103.376 E98.10781
G1 X58.727 Y103.903 E98.18549
G1 X59.110 Y104.240 E98.24671
G1 X59.491 Y104.488 E98.30126
G1 X60.072 Y104.698 E98.37540
G1 X60.632 Y104.814 E98.44402
G1 X61.347 Y104.851 E98.52994
G1 X62.062 Y104.789 E98.61606
G1 X58.072 Y106.307 E99.12834
G1 X58.072 Y107.955 E99.32610
G1 X62.107 Y109.483 E99.84386
G1 X61.703 Y109.415 E99.89302
G1 X61.214 Y109.386 E99.95180
G1 X60.476 Y109.446 E100.04065
G1 X60.172 Y109.502 E100.07775
G1 X59.782 Y109.630 E100.12700
G1 X59.420 Y109.816 E100.17584
G1 X58.833 Y110.209 E100.26061
G1 X58.374 Y110.822 E100.35251
G1 X58.132 Y111.309 E100.41777
G1 X58.014 Y111.805 E100.47895
G1 X57.952 Y112.452 E100.55694
G1 X58.000 Y113.056 E100.62965
G1 X58.094 Y113.473 E100.68095
G1 X58.249 Y113.845 E100.72931
G1 X58.515 Y114.312 E100.79380
G1 X59.072 Y114.853 E100.88698
G1 X59.590 Y115.143 E100.95822
G1 X59.832 Y115.231 E100.98912
G1 X58.072 Y115.231 E101.20032
G1 X58.072 Y117.310 E101.44980
G1 X61.370 Y117.310 E101.84556
G1 X61.754 Y117.332 E101.89171
G1 X62.225 Y117.429 E101.94942
G1 X62.349 Y117.488 E101.96590
G1 X62.407 Y117.547 E101.97583
G1 X62.453 Y117.628 E101.98700
G1 X62.461 Y117.697 E101.99534
G1 X62.443 Y117.838 E102.01240
G1 X62.386 Y117.986 E102.03143
G1 X62.081 Y118.575 E102.11102
G1 X58.072 Y118.575 E102.59210
G1 X58.072 Y120.654 E102.84158
G1 X66.430 Y120.654 E103.84454
G1 X66.430 Y118.575 E104.09402
G1 X64.396 Y118.575 E104.33810
G1 X64.434 Y118.499 E104.34830
G1 X64.519 Y118.208 E104.38468
G1 X64.579 Y117.746 E104.44058
G1 X64.527 Y117.335 E104.49030
G1 X64.457 Y117.169 E104.51192
G1 X64.457 Y115.231 E104.74448
G1 X62.398 Y115.231 E104.99156
G1 X62.721 Y115.128 E105.03224
G1 X63.089 Y114.943 E105.08166
G1 X63.676 Y114.555 E105.16610
G1 X64.134 Y113.983 E105.25403
G1 X64.382 Y113.516 E105.31749
G1 X64.507 Y113.036 E105.37701
G1 X64.578 Y112.407 E105.45297
G1 X64.495 Y111.694 E105.53910
G1 X64.390 Y111.301 E105.58792
G1 X64.202 Y110.916 E105.63933
G1 X63.793 Y110.371 E105.72110
G1 X63.652 Y110.205 E105.74724
G1 X63.141 Y109.875 E105.82023
G1 X64.457 Y110.373 E105.98908
G1 X64.457 Y108.180 E106.25224
G1 X61.573 Y107.130 E106.62054
G1 X62.661 Y106.742 E106.75916
G1 X64.457 Y106.097 E106.98815
G1 X64.457 Y103.878 E107.25443
G1 X63.140 Y104.379 E107.42352
G1 X63.694 Y104.005 E107.50373
G1 X64.143 Y103.422 E107.59204
G1 X64.392 Y102.937 E107.65746
G1 X64.536 Y102.266 E107.73981
G1 X64.577 Y101.819 E107.79368
G1 X64.510 Y101.171 E107.87185
G1 X64.386 Y100.698 E107.93053
G1 X64.182 Y100.286 E107.98570
G1 X63.846 Y99.782 E108.05839
G1 X63.355 Y99.390 E108.13378
G1 X62.876 Y99.093 E108.20141
G1 X62.454 Y98.934 E108.25553
G1 X62.015 Y98.847 E108.30923
G1 X61.525 Y98.807 E108.36823
G1 X61.903 Y97.307 E108.55386
G1 X60.900 Y97.007 E108.67949
G1 X60.703 Y96.917 E108.70548
G1 X60.285 Y96.583 E108.76968
G1 X60.107 Y96.299 E108.80990
G1 X60.035 Y96.126 E108.83239
G1 X59.975 Y95.792 E108.87311
G1 X59.962 Y95.631 E108.89249
G1 X60.007 Y95.232 E108.94068
G1 X60.103 Y94.941 E108.97745
G1 X60.209 Y94.725 E109.00632
G1 X60.401 Y94.482 E109.04348
G1 X60.527 Y94.364 E109.06420
G1 X60.926 Y94.139 E109.11917
G1 X61.339 Y94.018 E109.17081
G1 X61.764 Y93.942 E109.22262
G1 X62.300 Y93.913 E109.28703
G1 X62.806 Y93.948 E109.34790
G1 X63.301 Y94.051 E109.40857
G1 X63.474 Y94.101 E109.43018
G1 X63.687 Y94.193 E109.45802
G1 X63.868 Y94.290 E109.48267
G1 X64.008 Y94.397 E109.50381
G1 X64.242 Y94.647 E109.54490
G1 X64.449 Y95.063 E109.60066
G1 X64.500 Y95.250 E109.62392
G1 X64.539 Y95.683 E109.67609
G1 X64.497 Y96.096 E109.72591
G1 X64.451 Y96.242 E109.74428
G1 X64.301 Y96.520 E109.78218
G1 X64.091 Y96.724 E109.81731
G1 X63.961 Y96.819 E109.83664
G1 X62.948 Y97.258 E109.96912
G1 X63.442 Y99.353 E110.22741
G1 X64.656 Y98.878 E110.38385
G1 X65.105 Y98.624 E110.44575
G1 X65.308 Y98.471 E110.47626
G1 X65.765 Y98.015 E110.55373
G1 X65.894 Y97.876 E110.57648
G1 X66.235 Y97.266 E110.66034
G1 X66.420 Y96.784 E110.72230
G1 X66.525 Y96.135 E110.80119
G1 X66.554 Y95.712 E110.85207
G1 X66.503 Y95.078 E110.92840
G1 X66.412 Y94.608 E110.98584
G1 X66.274 Y94.201 E111.03741
G1 X66.042 Y93.680 E111.10585
G1 X65.676 Y93.152 E111.18295
G1 X65.343 Y92.789 E111.24206
G1 X64.861 Y92.430 E111.31418
G1 X64.520 Y92.221 E111.36217
G1 X63.880 Y91.971 E111.44463
G1 X63.597 Y91.884 E111.48015
G1 X62.954 Y91.774 E111.55843
G1 X62.304 Y91.735 E111.63658
G1 X61.629 Y91.776 E111.71772
G1 X60.938 Y91.899 E111.80195
G1 X60.150 Y92.158 E111.90148
G10
G0 F9000 X60.143 Y111.823
G11
G1 F1200 X60.440 Y111.635 E111.94366
G1 X60.440 Y113.219 E112.13374
G1 X60.219 Y113.109 E112.16337
G1 X60.023 Y112.933 E112.19498
G1 X59.918 Y112.734 E112.22198
G1 X59.903 Y112.680 E112.22870
G1 X59.881 Y112.468 E112.25428
G1 X59.927 Y112.150 E112.29284
G1 X60.012 Y111.985 E112.31511
G1 X60.143 Y111.823 E112.34011
G10
G0 F9000 X58.072 Y120.792
G11
G1 F1200 X58.072 Y122.871 E112.58959
G1 X61.503 Y122.871 E113.00131
G1 X61.923 Y122.888 E113.05175
G1 X62.094 Y122.923 E113.07270
G1 X62.170 Y122.953 E113.08250
G1 X62.414 Y123.101 E113.11675
G1 X62.547 Y123.311 E113.14658
G1 X62.575 Y123.391 E113.15675
G1 X62.610 Y123.665 E113.18990
G1 X62.585 Y123.840 E113.21111
G1 X62.538 Y123.940 E113.22437
G1 X62.470 Y124.026 E113.23752
G1 X62.420 Y124.054 E113.24440
G1 X62.096 Y124.117 E113.28401
G1 X60.089 Y124.127 E113.52485
G1 X58.072 Y124.127 E113.76689
G1 X58.072 Y126.206 E114.01637
G1 X61.868 Y126.206 E114.47189
G1 X62.447 Y126.191 E114.54140
G1 X62.832 Y126.148 E114.58788
G1 X63.223 Y126.035 E114.63672
G1 X63.550 Y125.874 E114.68046
G1 X63.735 Y125.760 E114.70654
G1 X64.046 Y125.457 E114.75864
G1 X64.192 Y125.251 E114.78894
G1 X64.359 Y124.923 E114.83311
G1 X64.500 Y124.489 E114.88787
G1 X64.547 Y124.244 E114.91780
G1 X64.577 Y123.812 E114.96977
G1 X64.474 Y123.096 E115.05657
G1 X64.370 Y122.783 E115.09615
G1 X64.457 Y122.783 E115.10659
G1 X64.457 Y120.792 E115.34551
G1 X58.072 Y120.792 E116.11171
G10
G0 F9000 X58.072 Y126.359
G11
G1 F1200 X58.072 Y128.438 E116.36119
G1 X60.248 Y128.438 E116.62231
G1 X58.072 Y129.845 E116.93326
G1 X58.072 Y131.616 E117.14578
G1 X58.707 Y131.955 E117.23216
G1 X61.851 Y129.850 E117.68620
G1 X63.708 Y131.763 E118.00613
G1 X64.457 Y131.459 E118.10313
G1 X64.457 Y129.667 E118.31817
G1 X63.211 Y128.438 E118.52818
G1 X66.430 Y128.438 E118.91446
G1 X66.430 Y126.359 E119.16394
G1 X58.072 Y126.359 E120.16690
G0 F9000 X58.472 Y126.759
;TYPE:WALL-OUTER
G1 F1200 X58.472 Y128.038 E120.32038
G1 X60.642 Y128.038 E120.58078
G1 X61.010 Y128.422 E120.64461
G1 X58.472 Y130.063 E121.00728
G1 X58.472 Y131.376 E121.16484
G1 X58.684 Y131.489 E121.19367
G1 X61.905 Y129.332 E121.65886
G1 X63.807 Y131.291 E121.98651
G1 X64.057 Y131.190 E122.01886
G1 X64.057 Y129.834 E122.18158
G1 X62.235 Y128.038 E122.48859
G1 X66.030 Y128.038 E122.94399
G1 X66.030 Y126.759 E123.09747
G1 X58.472 Y126.759 E124.00443
G0 F9000 X58.472 Y125.806
G1 F1200 X61.863 Y125.806 E124.41135
G1 X62.419 Y125.792 E124.47809
G1 X62.753 Y125.754 E124.51843
G1 X63.078 Y125.660 E124.55903
G1 X63.488 Y125.443 E124.61469
G1 X63.741 Y125.196 E124.65712
G1 X63.849 Y125.044 E124.67950
G1 X63.988 Y124.770 E124.71637
G1 X64.112 Y124.389 E124.76445
G1 X64.150 Y124.193 E124.78841
G1 X64.175 Y123.827 E124.83243
G1 X64.083 Y123.189 E124.90978
G1 X63.972 Y122.854 E124.95213
G1 X63.801 Y122.573 E124.99160
G1 X63.621 Y122.383 E125.02301
G1 X64.057 Y122.383 E125.07533
G1 X64.057 Y121.192 E125.21825
G1 X58.472 Y121.192 E125.88845
G1 X58.472 Y122.471 E126.04193
G1 X61.496 Y122.471 E126.40481
G1 X61.970 Y122.491 E126.46174
G1 X62.221 Y122.543 E126.49250
G1 X62.347 Y122.593 E126.50877
G1 X62.708 Y122.818 E126.55981
G1 X62.907 Y123.131 E126.60432
G1 X62.967 Y123.302 E126.62607
G1 X63.011 Y123.648 E126.66792
G1 X62.989 Y123.878 E126.69565
G1 X62.960 Y123.981 E126.70849
G1 X62.880 Y124.153 E126.73125
G1 X62.757 Y124.310 E126.75519
G1 X62.696 Y124.359 E126.76457
G1 X62.558 Y124.435 E126.78348
G1 X62.138 Y124.517 E126.83483
G1 X58.472 Y124.528 E127.27475
G1 X58.472 Y125.806 E127.42811
G10
G0 F9000 X58.472 Y120.254
G11
G1 F1200 X64.057 Y120.254 E128.09831
G1 X64.057 Y118.975 E128.25179
G1 X58.472 Y118.975 E128.92199
G1 X58.472 Y120.254 E129.07547
G10
G0 F9000 X58.472 Y116.910
G11
G1 F1200 X61.375 Y116.910 E129.42383
G1 X61.804 Y116.934 E129.47539
G1 X62.353 Y117.048 E129.54268
G1 X62.539 Y117.132 E129.56717
G1 X62.611 Y117.183 E129.57776
G1 X62.728 Y117.304 E129.59796
G1 X62.823 Y117.470 E129.62091
G1 X62.845 Y117.543 E129.63006
G1 X62.865 Y117.700 E129.64905
G1 X62.834 Y117.933 E129.67725
G1 X62.750 Y118.153 E129.70551
G1 X62.594 Y118.454 E129.74620
G1 X63.790 Y118.898 E129.89929
G1 X64.060 Y118.353 E129.97227
G1 X64.126 Y118.126 E130.00064
G1 X64.176 Y117.745 E130.04675
G1 X64.137 Y117.440 E130.08365
G1 X64.024 Y117.171 E130.11866
G1 X63.958 Y117.055 E130.13468
G1 X63.723 Y116.822 E130.17439
G1 X64.057 Y116.822 E130.21447
G1 X64.057 Y115.631 E130.35739
G1 X58.472 Y115.631 E131.02759
G1 X58.472 Y116.910 E131.18107
G10
G0 F9000 X64.619 Y118.975
G11
G1 F1200 X64.619 Y120.254 E131.33455
G1 X66.030 Y120.254 E131.50387
G1 X66.030 Y118.975 E131.65735
G1 X64.619 Y118.975 E131.82667
G10
G0 F9000 X62.570 Y114.757
G11
G1 F1200 X62.888 Y114.596 E131.86944
G1 X63.403 Y114.256 E131.94350
G1 X63.798 Y113.762 E132.01940
G1 X64.007 Y113.369 E132.07281
G1 X64.113 Y112.963 E132.12316
G1 X64.175 Y112.408 E132.19018
G1 X64.101 Y111.769 E132.26737
G1 X64.013 Y111.442 E132.30801
G1 X63.859 Y111.125 E132.35030
G1 X63.480 Y110.621 E132.42597
G1 X63.385 Y110.509 E132.44359
G1 X62.788 Y110.123 E132.52890
G1 X62.325 Y109.926 E132.58928
G1 X61.658 Y109.813 E132.67046
G1 X61.218 Y109.787 E132.72336
G1 X60.529 Y109.843 E132.80631
G1 X60.271 Y109.891 E132.83780
G1 X59.937 Y110.000 E132.87996
G1 X59.623 Y110.161 E132.92230
G1 X59.112 Y110.504 E132.99616
G1 X58.716 Y111.033 E133.07545
G1 X58.511 Y111.446 E133.13078
G1 X58.409 Y111.871 E133.18323
G1 X58.353 Y112.455 E133.25363
G1 X58.397 Y112.996 E133.31877
G1 X58.477 Y113.351 E133.36244
G1 X58.609 Y113.668 E133.40364
G1 X58.834 Y114.065 E133.45840
G1 X59.313 Y114.530 E133.53851
G1 X59.757 Y114.778 E133.59954
G1 X60.397 Y115.011 E133.68127
G1 X60.558 Y113.704 E133.83930
G1 X60.131 Y113.521 E133.89504
G1 X59.983 Y113.435 E133.91558
G1 X59.696 Y113.171 E133.96238
G1 X59.546 Y112.884 E134.00124
G1 X59.508 Y112.755 E134.01738
G1 X59.478 Y112.462 E134.05272
G1 X59.522 Y112.120 E134.09410
G1 X59.548 Y112.018 E134.10673
G1 X59.631 Y111.836 E134.13073
G1 X59.688 Y111.749 E134.14321
G1 X59.867 Y111.528 E134.17734
G1 X60.089 Y111.373 E134.20983
G1 X60.315 Y111.246 E134.24094
G1 X60.543 Y111.168 E134.26986
G1 X60.840 Y111.126 E134.30585
G1 X60.840 Y114.957 E134.76557
G1 X61.280 Y114.966 E134.81838
G1 X61.971 Y114.913 E134.90155
G1 X62.232 Y114.864 E134.93341
G1 X62.570 Y114.757 E134.97596
G10
G0 F9000 X64.057 Y109.794
G11
G1 F1200 X64.057 Y108.460 E135.13604
G1 X60.759 Y107.259 E135.55722
G1 X60.364 Y107.126 E135.60724
G1 X64.057 Y105.816 E136.07745
G1 X64.057 Y104.458 E136.24041
G1 X58.472 Y106.583 E136.95749
G1 X58.472 Y107.679 E137.08901
G1 X64.057 Y109.794 E137.80565
G10
G0 F9000 X62.391 Y104.309
G11
G1 F1200 X62.729 Y104.169 E137.84955
G1 X63.288 Y103.806 E137.92954
G1 X63.412 Y103.716 E137.94792
G1 X63.804 Y103.207 E138.02502
G1 X64.012 Y102.801 E138.07976
G1 X64.140 Y102.205 E138.15291
G1 X64.175 Y101.822 E138.19906
G1 X64.115 Y101.243 E138.26891
G1 X64.009 Y100.839 E138.31903
G1 X63.835 Y100.487 E138.36615
G1 X63.547 Y100.055 E138.42846
G1 X63.124 Y99.717 E138.49343
G1 X62.699 Y99.454 E138.55341
G1 X62.344 Y99.320 E138.59894
G1 X61.960 Y99.244 E138.64591
G1 X61.414 Y99.199 E138.71166
G1 X61.262 Y99.191 E138.72992
G1 X60.558 Y99.244 E138.81464
G1 X60.295 Y99.293 E138.84674
G1 X59.952 Y99.403 E138.88997
G1 X59.620 Y99.573 E138.93473
G1 X59.113 Y99.912 E139.00792
G1 X58.723 Y100.427 E139.08544
G1 X58.556 Y100.732 E139.12716
G1 X58.452 Y101.050 E139.16731
G1 X58.386 Y101.442 E139.21501
G1 X58.353 Y101.824 E139.26103
G1 X58.411 Y102.401 E139.33061
G1 X58.590 Y102.940 E139.39877
G1 X58.698 Y103.174 E139.42969
G1 X59.026 Y103.633 E139.49739
G1 X59.353 Y103.921 E139.54968
G1 X59.670 Y104.127 E139.59505
G1 X60.181 Y104.312 E139.66026
G1 X60.683 Y104.416 E139.72178
