;FLAVOR:UltiGCode
;TIME:5175
;MATERIAL:6135
;MATERIAL2:0
;NOZZLE_DIAMETER:0.400000
;NOZZLE_DIAMETER2:0.400000

;Layer count: 7
;LAYER:0
M107
G0 F9000 X44.710 Y65.808 Z0.300
;TYPE:SKIRT
G1 F1200 X82.110 Y65.808 E4.48800
G1 X82.110 Y147.207 E14.25588
G1 X44.710 Y147.207 E18.74388
G1 X44.710 Y113.807 E22.75188
G1 X56.210 Y113.807 E24.13188
G1 X56.210 Y99.708 E25.82376
G1 X44.710 Y99.708 E27.20376
G1 X44.710 Y65.808 E31.27176
G0 F9000 X84.891 Y75.793
G1 F1200 X178.290 Y75.793 E42.47964
G1 X178.290 Y157.192 E52.24752
G1 X84.891 Y157.192 E63.45540
G1 X84.891 Y75.793 E73.22328
G10
G0 F9000 X78.310 Y69.608
;TYPE:WALL-INNER
G11
G1 F1200 X78.310 Y143.407 E82.07916
G1 X48.510 Y143.407 E85.65516
G1 X48.510 Y117.607 E88.75116
G1 X60.010 Y117.607 E90.13116
G1 X60.010 Y95.908 E92.73504
G1 X48.510 Y95.908 E94.11504
G1 X48.510 Y69.608 E97.27104
G1 X78.310 Y69.608 E100.84704
G10
G0 F9000 X53.513 Y72.484
G11
G1 F1200 X53.437 Y71.953 E100.91141
G1 X53.275 Y71.537 E100.96498
G1 X53.106 Y71.273 E101.00260
G1 X52.978 Y71.110 E101.02747
G1 X52.743 Y70.885 E101.06651
G1 X52.331 Y70.619 E101.12536
G1 X51.879 Y70.462 E101.18278
G1 X51.665 Y70.422 E101.20890
G1 X51.386 Y70.405 E101.24244
G1 X50.855 Y70.481 E101.30681
G1 X50.430 Y70.646 E101.36152
G1 X50.024 Y70.927 E101.42077
G1 X49.799 Y71.162 E101.45981
G1 X49.636 Y71.382 E101.49267
G1 X49.425 Y71.816 E101.55058
G1 X49.325 Y72.240 E101.60285
G1 X49.307 Y72.531 E101.63784
G1 X49.382 Y73.063 E101.70231
G1 X49.549 Y73.488 E101.75711
G1 X49.834 Y73.904 E101.81762
G1 X50.207 Y74.233 E101.87730
G1 X50.505 Y74.404 E101.91853
G1 X50.943 Y74.555 E101.97413
G1 X51.158 Y74.594 E102.00035
G1 X51.433 Y74.611 E102.03341
G1 X51.964 Y74.537 E102.09775
G1 X52.381 Y74.374 E102.15148
G1 X52.645 Y74.205 E102.18909
G1 X52.817 Y74.069 E102.21540
G1 X53.134 Y73.711 E102.27278
G1 X53.305 Y73.413 E102.31401
G1 X53.456 Y72.977 E102.36938
G1 X53.496 Y72.763 E102.39551
G1 X53.513 Y72.484 E102.42905
G10
G0 F9000 X51.386 Y138.404
G11
G1 F1200 X50.855 Y138.480 E102.49342
G1 X50.430 Y138.645 E102.54813
G1 X50.024 Y138.926 E102.60738
G1 X49.799 Y139.161 E102.64642
G1 X49.636 Y139.381 E102.67928
G1 X49.425 Y139.815 E102.73718
G1 X49.325 Y140.239 E102.78946
G1 X49.307 Y140.530 E102.82445
G1 X49.382 Y141.062 E102.88892
G1 X49.549 Y141.487 E102.94371
G1 X49.834 Y141.903 E103.00423
G1 X50.207 Y142.232 E103.06391
G1 X50.505 Y142.403 E103.10514
G1 X50.943 Y142.554 E103.16074
G1 X51.158 Y142.593 E103.18696
G1 X51.433 Y142.610 E103.22002
G1 X51.964 Y142.536 E103.28435
G1 X52.381 Y142.373 E103.33808
G1 X52.645 Y142.204 E103.37570
G1 X52.817 Y142.068 E103.40201
G1 X53.134 Y141.710 E103.45939
G1 X53.305 Y141.412 E103.50062
G1 X53.456 Y140.976 E103.55599
G1 X53.496 Y140.762 E103.58211
G1 X53.513 Y140.483 E103.61566
G1 X53.437 Y139.952 E103.68003
G1 X53.275 Y139.536 E103.73360
G1 X53.106 Y139.272 E103.77121
G1 X52.978 Y139.109 E103.79608
G1 X52.743 Y138.884 E103.83512
G1 X52.331 Y138.618 E103.89397
G1 X51.879 Y138.461 E103.95139
G1 X51.665 Y138.421 E103.97752
G1 X51.386 Y138.404 E104.01106
G0 F9000 X51.616 Y138.819
;TYPE:WALL-OUTER
G1 F1200 X51.402 Y138.806 E104.03679
G1 X50.957 Y138.869 E104.09072
G1 X50.619 Y139.001 E104.13426
G1 X50.285 Y139.232 E104.18299
G1 X50.106 Y139.419 E104.21406
G1 X49.980 Y139.589 E104.23945
G1 X49.804 Y139.950 E104.28764
G1 X49.722 Y140.298 E104.33055
G1 X49.709 Y140.515 E104.35663
G1 X49.771 Y140.960 E104.41055
G1 X49.904 Y141.298 E104.45414
G1 X50.136 Y141.636 E104.50333
G1 X50.441 Y141.905 E104.55213
G1 X50.671 Y142.037 E104.58396
G1 X51.044 Y142.166 E104.63132
G1 X51.205 Y142.195 E104.65095
G1 X51.418 Y142.208 E104.67656
G1 X51.863 Y142.146 E104.73047
G1 X52.198 Y142.015 E104.77364
G1 X52.542 Y141.776 E104.82390
G1 X52.807 Y141.476 E104.87193
G1 X52.939 Y141.246 E104.90376
G1 X53.068 Y140.873 E104.95112
G1 X53.098 Y140.713 E104.97065
G1 X53.111 Y140.499 E104.99638
G1 X53.048 Y140.054 E105.05031
G1 X52.917 Y139.719 E105.09348
G1 X52.681 Y139.378 E105.14324
G1 X52.494 Y139.199 E105.17430
G1 X52.154 Y138.980 E105.22284
G1 X51.776 Y138.849 E105.27084
G1 X51.616 Y138.819 E105.29038
G10
G0 F9000 X48.110 Y143.807
G11
G1 F1200 X48.110 Y117.207 E108.48238
G1 X59.610 Y117.207 E109.86238
G1 X59.610 Y96.308 E112.37026
G1 X48.110 Y96.308 E113.75026
G1 X48.110 Y69.208 E117.00226
G1 X78.710 Y69.208 E120.67426
G1 X78.710 Y143.807 E129.62614
G1 X48.110 Y143.807 E133.29814
G10
G0 F9000 X51.418 Y74.209
G11
G1 F1200 X51.863 Y74.147 E133.35205
G1 X52.198 Y74.016 E133.39522
G1 X52.542 Y73.777 E133.44548
G1 X52.807 Y73.477 E133.49352
G1 X52.939 Y73.247 E133.52534
G1 X53.068 Y72.874 E133.57270
G1 X53.098 Y72.714 E133.59223
G1 X53.111 Y72.500 E133.61796
G1 X53.048 Y72.055 E133.67189
G1 X52.917 Y71.720 E133.71506
G1 X52.681 Y71.379 E133.76482
G1 X52.494 Y71.200 E133.79589
G1 X52.154 Y70.981 E133.84442
G1 X51.776 Y70.850 E133.89242
G1 X51.616 Y70.820 E133.91196
G1 X51.402 Y70.807 E133.93769
G1 X50.957 Y70.870 E133.99162
G1 X50.619 Y71.002 E134.03516
G1 X50.285 Y71.233 E134.08389
G1 X50.106 Y71.420 E134.11496
G1 X49.980 Y71.590 E134.14035
G1 X49.804 Y71.951 E134.18854
G1 X49.722 Y72.299 E134.23145
G1 X49.709 Y72.516 E134.25753
G1 X49.771 Y72.961 E134.31145
G1 X49.904 Y73.299 E134.35504
G1 X50.136 Y73.637 E134.40423
G1 X50.441 Y73.906 E134.45303
G1 X50.671 Y74.038 E134.48486
G1 X51.044 Y74.167 E134.53222
G1 X51.205 Y74.196 E134.55185
G1 X51.418 Y74.209 E134.57746
G0 F9000 X51.264 Y74.740
;TYPE:SKIN
G1 F900 X78.169 Y101.645 E139.14339
G0 F9000 X78.169 Y101.080
G1 F900 X51.792 Y74.702 E143.61980
G0 F9000 X52.236 Y74.580
G1 F900 X78.169 Y100.514 E148.02086
G10
G0 F9000 X78.169 Y102.211
G11
G1 F900 X50.512 Y74.553 E152.71449
G10
G0 F9000 X49.368 Y73.410
G11
G1 F900 X48.649 Y72.691 E152.83651
G0 F9000 X49.183 Y72.659
G1 F900 X48.928 Y72.122 E152.92711
G1 X48.649 Y71.559 E153.00251
G0 F9000 X48.649 Y70.994
G1 F900 X49.335 Y71.680 E153.11892
G0 F9000 X49.522 Y71.301
G1 F900 X48.649 Y70.428 E153.26708
G0 F9000 X48.649 Y69.862
G1 F900 X49.773 Y70.986 E153.45783
G0 F9000 X50.073 Y70.720
G1 F900 X49.100 Y69.747 E153.62295
G0 F9000 X49.665 Y69.747
G1 F900 X50.417 Y70.499 E153.75057
G0 F9000 X50.826 Y70.342
G1 F900 X50.231 Y69.747 E153.85154
G0 F9000 X50.797 Y69.747
G1 F900 X51.320 Y70.270 E153.94030
G0 F9000 X51.362 Y69.747
G1 F900 X51.955 Y70.340 E154.04093
G0 F9000 X51.928 Y69.747
G1 F900 X78.169 Y95.989 E158.49427
G0 F9000 X78.169 Y96.554
G1 F900 X53.580 Y71.965 E162.66716
G0 F9000 X53.646 Y72.596
G1 F900 X78.169 Y97.120 E166.82893
G0 F9000 X78.169 Y97.686
G1 F900 X53.566 Y73.082 E171.00429
G0 F9000 X53.416 Y73.498
G1 F900 X78.169 Y98.251 E175.20501
G0 F9000 X78.169 Y98.817
G1 F900 X53.198 Y73.845 E179.44281
G0 F9000 X52.933 Y74.146
G1 F900 X78.169 Y99.383 E183.72559
G0 F9000 X78.169 Y99.948
G1 F900 X52.612 Y74.391 E188.06276
G10
G0 F9000 X48.649 Y74.388
G11
G1 F900 X78.169 Y103.908 E193.07247
G0 F9000 X78.169 Y104.474
G1 F900 X48.649 Y74.954 E198.08218
G0 F9000 X48.649 Y75.519
G1 F900 X78.169 Y105.040 E203.09197
G0 F9000 X78.169 Y105.605
G1 F900 X48.649 Y76.085 E208.10168
G0 F9000 X48.649 Y76.651
G1 F900 X78.169 Y106.171 E213.11139
G0 F9000 X78.169 Y106.737
G1 F900 X48.649 Y77.216 E218.12119
G0 F9000 X48.649 Y77.782
G1 F900 X78.169 Y107.302 E223.13090
G0 F9000 X78.169 Y107.868
G1 F900 X48.649 Y78.348 E228.14061
G0 F9000 X48.649 Y78.913
G1 F900 X78.169 Y108.434 E233.15040
G0 F9000 X78.169 Y108.999
G1 F900 X48.649 Y79.479 E238.16011
G10
G0 F9000 X48.649 Y73.822
G11
G1 F900 X78.169 Y103.342 E243.16982
G0 F9000 X78.169 Y102.777
G1 F900 X48.649 Y73.256 E248.17962
G10
G0 F9000 X52.494 Y69.747
G11
G1 F900 X78.169 Y95.423 E252.53689
G0 F9000 X78.169 Y94.857
G1 F900 X53.059 Y69.747 E256.79820
G0 F9000 X53.625 Y69.747
G1 F900 X78.169 Y94.291 E260.96346
G0 F9000 X78.169 Y93.726
G1 F900 X54.191 Y69.747 E265.03274
G0 F9000 X54.756 Y69.747
G1 F900 X78.169 Y93.160 E269.00606
G0 F9000 X78.169 Y92.594
G1 F900 X55.322 Y69.747 E272.88333
G0 F9000 X55.888 Y69.747
G1 F900 X78.169 Y92.029 E276.66462
G0 F9000 X78.169 Y91.463
G1 F900 X56.453 Y69.747 E280.34995
G0 F9000 X57.019 Y69.747
G1 F900 X78.169 Y90.897 E283.93922
G0 F9000 X78.169 Y90.332
G1 F900 X57.585 Y69.747 E287.43253
G0 F9000 X58.151 Y69.747
G1 F900 X78.169 Y89.766 E290.82978
G0 F9000 X78.169 Y89.200
G1 F900 X58.716 Y69.747 E294.13106
G0 F9000 X59.282 Y69.747
G1 F900 X78.169 Y88.635 E297.33638
G0 F9000 X78.169 Y88.069
G1 F900 X59.848 Y69.747 E300.44564
G0 F9000 X60.413 Y69.747
G1 F900 X78.169 Y87.503 E303.45893
G0 F9000 X78.169 Y86.938
G1 F900 X60.979 Y69.747 E306.37626
G0 F9000 X61.545 Y69.747
G1 F900 X78.169 Y86.372 E309.19753
G0 F9000 X78.169 Y85.806
G1 F900 X62.110 Y69.747 E311.92283
G0 F9000 X62.676 Y69.747
G1 F900 X78.169 Y85.241 E314.55217
G0 F9000 X78.169 Y84.675
G1 F900 X63.242 Y69.747 E317.08545
G0 F9000 X63.807 Y69.747
G1 F900 X78.169 Y84.109 E319.52276
G0 F9000 X78.169 Y83.543
G1 F900 X64.373 Y69.747 E321.86402
G0 F9000 X64.939 Y69.747
G1 F900 X78.169 Y82.978 E324.10931
G0 F9000 X78.169 Y82.412
G1 F900 X65.504 Y69.747 E326.25863
G0 F9000 X66.070 Y69.747
G1 F900 X78.169 Y81.846 E328.31190
G0 F9000 X78.169 Y81.281
G1 F900 X66.636 Y69.747 E330.26920
G0 F9000 X67.202 Y69.747
G1 F900 X78.169 Y80.715 E332.13044
G0 F9000 X78.169 Y80.149
G1 F900 X67.767 Y69.747 E333.89572
G0 F9000 X68.333 Y69.747
G1 F900 X78.169 Y79.584 E335.56503
G0 F9000 X78.169 Y79.018
G1 F900 X68.899 Y69.747 E337.13829
G0 F9000 X69.464 Y69.747
G1 F900 X78.169 Y78.452 E338.61558
G0 F9000 X78.169 Y77.887
G1 F900 X70.030 Y69.747 E339.99689
G0 F9000 X70.596 Y69.747
G1 F900 X78.169 Y77.321 E341.28216
G0 F9000 X78.169 Y76.755
G1 F900 X71.161 Y69.747 E342.47146
G0 F9000 X71.727 Y69.747
G1 F900 X78.169 Y76.190 E343.56479
G0 F9000 X78.169 Y75.624
G1 F900 X72.293 Y69.747 E344.56206
G0 F9000 X72.858 Y69.747
G1 F900 X78.169 Y75.058 E345.46337
G0 F9000 X78.169 Y74.492
G1 F900 X73.424 Y69.747 E346.26862
G0 F9000 X73.990 Y69.747
G1 F900 X78.169 Y73.927 E346.97791
G0 F9000 X78.169 Y73.361
G1 F900 X74.555 Y69.747 E347.59122
G0 F9000 X75.121 Y69.747
G1 F900 X78.169 Y72.795 E348.10848
G0 F9000 X78.169 Y72.230
G1 F900 X75.687 Y69.747 E348.52978
G0 F9000 X76.252 Y69.747
G1 F900 X78.169 Y71.664 E348.85510
G0 F9000 X78.169 Y71.098
G1 F900 X76.818 Y69.747 E349.08438
G0 F9000 X77.384 Y69.747
G1 F900 X78.169 Y70.533 E349.21768
G0 F9000 X78.169 Y69.967
G1 F900 X77.950 Y69.747 E349.25493
G10
G0 F9000 X48.649 Y80.045
G11
G1 F900 X78.169 Y109.565 E354.26464
G0 F9000 X78.169 Y110.131
G1 F900 X48.649 Y80.610 E359.27444
G0 F9000 X48.649 Y81.176
G1 F900 X78.169 Y110.696 E364.28415
G0 F9000 X78.169 Y111.262
G1 F900 X48.649 Y81.742 E369.29386
G0 F9000 X48.649 Y82.307
G1 F900 X78.169 Y111.828 E374.30365
G0 F9000 X78.169 Y112.393
G1 F900 X48.649 Y82.873 E379.31336
G0 F9000 X48.649 Y83.439
G1 F900 X78.169 Y112.959 E384.32307
G0 F9000 X78.169 Y113.525
G1 F900 X48.649 Y84.004 E389.33287
G0 F9000 X48.649 Y84.570
G1 F900 X59.845 Y95.767 E391.23298
G0 F9000 X59.280 Y95.767
G1 F900 X48.649 Y85.136 E393.03712
G0 F9000 X48.649 Y85.702
G1 F900 X58.714 Y95.767 E394.74520
G0 F9000 X58.148 Y95.767
G1 F900 X48.649 Y86.267 E396.35732
G0 F9000 X48.649 Y86.833
G1 F900 X57.583 Y95.767 E397.87347
G0 F9000 X57.017 Y95.767
G1 F900 X48.649 Y87.399 E399.29357
G0 F9000 X48.649 Y87.964
G1 F900 X56.451 Y95.767 E400.61770
G0 F9000 X55.886 Y95.767
G1 F900 X48.649 Y88.530 E401.84586
G0 F9000 X48.649 Y89.096
G1 F900 X55.320 Y95.767 E402.97796
G0 F9000 X54.754 Y95.767
G1 F900 X48.649 Y89.661 E404.01410
G0 F9000 X48.649 Y90.227
G1 F900 X54.189 Y95.767 E404.95427
G0 F9000 X53.623 Y95.767
G1 F900 X48.649 Y90.793 E405.79838
G0 F9000 X48.649 Y91.358
G1 F900 X53.057 Y95.767 E406.54653
G0 F9000 X52.492 Y95.767
G1 F900 X48.649 Y91.924 E407.19871
G0 F9000 X48.649 Y92.490
G1 F900 X51.926 Y95.767 E407.75484
G0 F9000 X51.360 Y95.767
G1 F900 X48.649 Y93.055 E408.21499
G0 F9000 X48.649 Y93.621
G1 F900 X50.795 Y95.767 E408.57918
G0 F9000 X50.229 Y95.767
G1 F900 X48.649 Y94.187 E408.84732
G0 F9000 X48.649 Y94.753
G1 F900 X49.663 Y95.767 E409.01940
G0 F9000 X49.097 Y95.767
G1 F900 X48.649 Y95.318 E409.09551
G10
G0 F9000 X60.150 Y96.071
G11
G1 F900 X78.169 Y114.090 E412.15344
G0 F9000 X78.169 Y114.656
G1 F900 X60.150 Y96.636 E415.21145
G0 F9000 X60.150 Y97.202
G1 F900 X78.169 Y115.222 E418.26946
G0 F9000 X78.169 Y115.788
G1 F900 X60.150 Y97.768 E421.32747
G0 F9000 X60.150 Y98.333
G1 F900 X78.169 Y116.353 E424.38548
G0 F9000 X78.169 Y116.919
G1 F900 X60.150 Y98.899 E427.44349
G0 F9000 X60.150 Y99.465
G1 F900 X78.169 Y117.485 E430.50150
G0 F9000 X78.169 Y118.050
G1 F900 X60.150 Y100.030 E433.55951
G0 F9000 X60.150 Y100.596
G1 F900 X78.169 Y118.616 E436.61752
G0 F9000 X78.169 Y119.182
G1 F900 X60.150 Y101.162 E439.67553
G0 F9000 X60.150 Y101.727
G1 F900 X78.169 Y119.747 E442.73354
G0 F9000 X78.169 Y120.313
G1 F900 X60.150 Y102.293 E445.79155
G0 F9000 X60.150 Y102.859
G1 F900 X78.169 Y120.879 E448.84956
G0 F9000 X78.169 Y121.444
G1 F900 X60.150 Y103.424 E451.90757
G0 F9000 X60.150 Y103.990
G1 F900 X78.169 Y122.010 E454.96558
G0 F9000 X78.169 Y122.576
G1 F900 X60.150 Y104.556 E458.02359
G0 F9000 X60.150 Y105.122
G1 F900 X78.169 Y123.141 E461.08152
G0 F9000 X78.169 Y123.707
G1 F900 X60.150 Y105.687 E464.13953
G0 F9000 X60.150 Y106.253
G1 F900 X78.169 Y124.273 E467.19754
G0 F9000 X78.169 Y124.838
G1 F900 X60.150 Y106.819 E470.25547
G0 F9000 X60.150 Y107.384
G1 F900 X78.169 Y125.404 E473.31348
G0 F9000 X78.169 Y125.970
G1 F900 X60.150 Y107.950 E476.37149
G0 F9000 X60.150 Y108.516
G1 F900 X78.169 Y126.536 E479.42950
G0 F9000 X78.169 Y127.101
G1 F900 X60.150 Y109.081 E482.48751
G0 F9000 X60.150 Y109.647
G1 F900 X78.169 Y127.667 E485.54552
G0 F9000 X78.169 Y128.233
G1 F900 X60.150 Y110.213 E488.60353
G0 F9000 X60.150 Y110.778
G1 F900 X78.169 Y128.798 E491.66154
G0 F9000 X78.169 Y129.364
G1 F900 X60.150 Y111.344 E494.71955
G0 F9000 X60.150 Y111.910
G1 F900 X78.169 Y129.930 E497.77756
G0 F9000 X78.169 Y130.495
G1 F900 X60.150 Y112.475 E500.83557
G0 F9000 X60.150 Y113.041
G1 F900 X78.169 Y131.061 E503.89358
G0 F9000 X78.169 Y131.627
G1 F900 X60.150 Y113.607 E506.95159
G0 F9000 X60.150 Y114.172
G1 F900 X78.169 Y132.192 E510.00960
G0 F9000 X78.169 Y132.758
G1 F900 X60.150 Y114.738 E513.06762
G0 F9000 X60.150 Y115.304
G1 F900 X78.169 Y133.324 E516.12563
G0 F9000 X78.169 Y133.889
G1 F900 X60.150 Y115.870 E519.18355
G0 F9000 X60.150 Y116.435
G1 F900 X78.169 Y134.455 E522.24156
G0 F9000 X78.169 Y135.021
G1 F900 X60.150 Y117.001 E525.29957
G0 F9000 X60.150 Y117.567
G1 F900 X78.169 Y135.587 E528.35758
G0 F9000 X78.169 Y136.152
G1 F900 X59.763 Y117.746 E531.48118
G0 F9000 X59.198 Y117.746
G1 F900 X78.169 Y136.718 E534.70076
G0 F9000 X78.169 Y137.284
G1 F900 X58.632 Y117.746 E538.01638
G0 F9000 X58.066 Y117.746
G1 F900 X78.169 Y137.849 E541.42797
G0 F9000 X78.169 Y138.415
G1 F900 X57.501 Y117.746 E544.93553
G0 F9000 X56.935 Y117.746
G1 F900 X78.169 Y138.981 E548.53915
G0 F9000 X78.169 Y139.546
G1 F900 X56.369 Y117.746 E552.23873
G0 F9000 X55.804 Y117.746
G1 F900 X78.169 Y140.112 E556.03428
G0 F9000 X78.169 Y140.678
G1 F900 X55.238 Y117.746 E559.92588
G0 F9000 X54.672 Y117.746
G1 F900 X78.169 Y141.243 E563.91346
G0 F9000 X78.169 Y141.809
G1 F900 X54.107 Y117.746 E567.99700
G0 F9000 X53.541 Y117.746
G1 F900 X78.169 Y142.375 E572.17659
G0 F9000 X78.169 Y142.940
G1 F900 X52.975 Y117.746 E576.45216
G0 F9000 X52.410 Y117.746
G1 F900 X77.929 Y143.266 E580.78296
G0 F9000 X77.363 Y143.266
G1 F900 X51.844 Y117.746 E585.11376
G0 F9000 X51.278 Y117.746
G1 F900 X76.798 Y143.266 E589.44465
G0 F9000 X76.232 Y143.266
G1 F900 X50.712 Y117.746 E593.77554
G0 F9000 X50.147 Y117.746
G1 F900 X75.666 Y143.266 E598.10634
G0 F9000 X75.101 Y143.266
G1 F900 X49.581 Y117.746 E602.43723
G0 F9000 X49.015 Y117.746
G1 F900 X74.535 Y143.266 E606.76812
G0 F9000 X73.969 Y143.266
G1 F900 X48.649 Y117.946 E611.06506
G0 F9000 X48.649 Y118.511
G1 F900 X73.404 Y143.266 E615.26613
G0 F9000 X72.838 Y143.266
G1 F900 X48.649 Y119.077 E619.37114
G0 F9000 X48.649 Y119.643
G1 F900 X72.272 Y143.266 E623.38009
G0 F9000 X71.706 Y143.266
G1 F900 X48.649 Y120.208 E627.29308
G0 F9000 X48.649 Y120.774
G1 F900 X71.141 Y143.266 E631.11010
G0 F9000 X70.575 Y143.266
