;FLAVOR:UltiGCode
;TIME:4668
;MATERIAL:8385
;MATERIAL2:0
;NOZZLE_DIAMETER:0.400000
;NOZZLE_DIAMETER2:0.400000

;Layer count: 90
;LAYER:0
M107
G0 F9000 X50.093 Y70.504 Z0.300
;TYPE:SKIRT
G1 F1200 X50.553 Y70.177 E0.06773
G1 X51.403 Y69.714 E0.18388
G1 X52.381 Y69.378 E0.30797
G1 X53.393 Y69.211 E0.43105
G1 X169.234 Y69.200 E14.33197
G1 X170.134 Y69.276 E14.44036
G1 X171.068 Y69.514 E14.55602
G1 X171.667 Y69.751 E14.63332
G1 X172.444 Y70.172 E14.73937
G1 X172.919 Y70.514 E14.80960
G1 X173.298 Y70.835 E14.86920
G1 X173.664 Y71.200 E14.93123
G1 X173.996 Y71.593 E14.99297
G1 X174.323 Y72.053 E15.06069
G1 X174.786 Y72.903 E15.17684
G1 X175.122 Y73.881 E15.30094
G1 X175.289 Y74.893 E15.42402
G1 X175.300 Y147.734 E24.16494
G1 X175.224 Y148.634 E24.27332
G1 X174.986 Y149.568 E24.38899
G1 X174.749 Y150.167 E24.46629
G1 X174.328 Y150.944 E24.57233
G1 X173.986 Y151.419 E24.64257
G1 X173.665 Y151.798 E24.70217
G1 X173.300 Y152.164 E24.76420
G1 X172.907 Y152.496 E24.82594
G1 X172.447 Y152.823 E24.89366
G1 X171.597 Y153.286 E25.00981
G1 X170.619 Y153.622 E25.13390
G1 X169.607 Y153.789 E25.25699
G1 X53.766 Y153.800 E39.15791
G1 X52.866 Y153.724 E39.26629
G1 X51.932 Y153.486 E39.38195
G1 X51.333 Y153.249 E39.45925
G1 X50.556 Y152.828 E39.56530
G1 X50.081 Y152.486 E39.63554
G1 X49.702 Y152.165 E39.69514
G1 X49.336 Y151.800 E39.75717
G1 X49.004 Y151.407 E39.81890
G1 X48.677 Y150.947 E39.88663
G1 X48.214 Y150.097 E40.00278
G1 X47.878 Y149.119 E40.12687
G1 X47.714 Y148.125 E40.24776
G1 X47.700 Y146.910 E40.39357
G1 X47.700 Y75.266 E48.99085
G1 X47.776 Y74.366 E49.09924
G1 X48.014 Y73.432 E49.21490
G1 X48.251 Y72.833 E49.29220
G1 X48.672 Y72.056 E49.39825
G1 X49.014 Y71.581 E49.46849
G1 X49.335 Y71.202 E49.52809
G1 X49.700 Y70.836 E49.59011
G1 X50.093 Y70.504 E49.65185
G10
G0 F9000 X52.427 Y73.507
;TYPE:WALL-INNER
G11
G1 F1200 X52.571 Y73.404 E49.67310
G1 X52.938 Y73.205 E49.72319
G1 X53.314 Y73.076 E49.77090
G1 X53.706 Y73.011 E49.81858
G1 X169.074 Y73.000 E63.66274
G1 X169.502 Y73.036 E63.71428
G1 X169.896 Y73.137 E63.76309
G1 X170.059 Y73.201 E63.78410
G1 X170.419 Y73.396 E63.83323
G1 X170.724 Y73.634 E63.87966
G1 X170.993 Y73.927 E63.92739
G1 X171.096 Y74.071 E63.94863
G1 X171.295 Y74.438 E63.99873
G1 X171.424 Y74.814 E64.04643
G1 X171.489 Y75.206 E64.09411
G1 X171.500 Y147.574 E72.77827
G1 X171.464 Y148.002 E72.82982
G1 X171.363 Y148.396 E72.87862
G1 X171.299 Y148.559 E72.89964
G1 X171.104 Y148.919 E72.94877
G1 X170.866 Y149.224 E72.99519
G1 X170.573 Y149.493 E73.04292
G1 X170.429 Y149.596 E73.06417
G1 X170.062 Y149.795 E73.11427
G1 X169.686 Y149.924 E73.16197
G1 X169.294 Y149.989 E73.20965
G1 X53.926 Y150.000 E87.05381
G1 X53.498 Y149.964 E87.10535
G1 X53.104 Y149.863 E87.15416
G1 X52.941 Y149.799 E87.17517
G1 X52.581 Y149.604 E87.22430
G1 X52.276 Y149.366 E87.27073
G1 X52.007 Y149.073 E87.31846
G1 X51.904 Y148.929 E87.33971
G1 X51.705 Y148.562 E87.38980
G1 X51.576 Y148.186 E87.43750
G1 X51.510 Y147.791 E87.48556
G1 X51.500 Y146.892 E87.59345
G1 X51.500 Y75.426 E96.16937
G1 X51.536 Y74.998 E96.22091
G1 X51.637 Y74.604 E96.26972
G1 X51.701 Y74.441 E96.29073
G1 X51.896 Y74.081 E96.33986
G1 X52.134 Y73.776 E96.38629
G1 X52.427 Y73.507 E96.43402
G10
G0 F9000 X64.637 Y74.667
G11
G1 F1200 X64.639 Y75.687 E96.55642
G1 X64.634 Y79.762 E97.04542
G1 X64.635 Y146.747 E105.08362
G1 X64.634 Y147.070 E105.12238
G1 X64.639 Y148.463 E105.28954
G1 X163.150 Y148.465 E117.11086
G1 X163.150 Y149.600 E117.24706
G1 X164.357 Y149.600 E117.39190
G1 X164.357 Y73.400 E126.53590
G1 X163.150 Y73.400 E126.68074
G1 X163.150 Y74.662 E126.83218
G1 X162.177 Y74.664 E126.94894
G1 X65.507 Y74.664 E138.54934
G1 X64.637 Y74.667 E138.65374
G0 F9000 X65.038 Y75.065
;TYPE:WALL-OUTER
G1 F1200 X65.035 Y146.748 E147.25570
G1 X65.034 Y147.070 E147.29434
G1 X65.038 Y148.063 E147.41350
G1 X162.815 Y148.065 E159.14674
G1 X162.814 Y75.063 E167.90698
G1 X65.038 Y75.065 E179.64010
G10
G0 F9000 X53.671 Y72.611
G11
G1 F1200 X169.095 Y72.600 E193.49098
G1 X169.563 Y72.639 E193.54734
G1 X170.023 Y72.757 E193.60432
G1 X170.226 Y72.837 E193.63051
G1 X170.634 Y73.058 E193.68619
G1 X171.001 Y73.345 E193.74210
G1 X171.154 Y73.498 E193.76806
G1 X171.308 Y73.680 E193.79667
G1 X171.433 Y73.855 E193.82248
G1 X171.665 Y74.280 E193.88058
G1 X171.814 Y74.716 E193.93587
G1 X171.889 Y75.171 E193.99121
G1 X171.900 Y147.600 E202.68269
G1 X171.861 Y148.063 E202.73845
G1 X171.743 Y148.523 E202.79543
G1 X171.663 Y148.726 E202.82162
G1 X171.443 Y149.132 E202.87703
G1 X171.308 Y149.320 E202.90480
G1 X171.155 Y149.501 E202.93324
G1 X171.002 Y149.654 E202.95921
G1 X170.820 Y149.808 E202.98782
G1 X170.645 Y149.933 E203.01362
G1 X170.220 Y150.165 E203.07173
G1 X169.784 Y150.314 E203.12702
G1 X169.329 Y150.389 E203.18236
G1 X53.905 Y150.400 E217.03324
G1 X53.437 Y150.361 E217.08959
G1 X52.977 Y150.243 E217.14658
G1 X52.774 Y150.163 E217.17276
G1 X52.366 Y149.942 E217.22844
G1 X51.999 Y149.655 E217.28435
G1 X51.691 Y149.319 E217.33905
G1 X51.567 Y149.144 E217.36478
G1 X51.334 Y148.717 E217.42316
G1 X51.186 Y148.284 E217.47807
G1 X51.111 Y147.828 E217.53352
G1 X51.100 Y146.892 E217.64585
G1 X51.100 Y75.400 E226.22489
G1 X51.139 Y74.937 E226.28065
G1 X51.257 Y74.477 E226.33763
G1 X51.337 Y74.274 E226.36382
G1 X51.558 Y73.866 E226.41950
G1 X51.692 Y73.680 E226.44701
G1 X51.845 Y73.499 E226.47545
G1 X52.181 Y73.191 E226.53015
G1 X52.355 Y73.067 E226.55579
G1 X52.780 Y72.835 E226.61389
G1 X53.216 Y72.686 E226.66918
G1 X53.671 Y72.611 E226.72452
G10
G0 F9000 X163.550 Y73.800
G11
G1 F1200 X163.550 Y149.200 E235.77252
G1 X163.957 Y149.200 E235.82136
G1 X163.957 Y73.800 E244.86936
G1 X163.550 Y73.800 E244.91820
G0 F9000 X163.009 Y73.913
;TYPE:SKIN
G1 F900 X162.237 Y73.141 E245.04921
G0 F9000 X162.802 Y73.141
G1 F900 X163.009 Y73.348 E245.08434
G0 F9000 X163.009 Y74.479
G1 F900 X161.671 Y73.141 E245.31140
G0 F9000 X161.105 Y73.141
G1 F900 X162.486 Y74.521 E245.54568
G0 F9000 X161.920 Y74.521
G1 F900 X160.540 Y73.141 E245.77988
G0 F9000 X159.974 Y73.141
G1 F900 X161.354 Y74.521 E246.01407
G0 F9000 X160.789 Y74.521
G1 F900 X159.408 Y73.141 E246.24835
G0 F9000 X158.843 Y73.141
G1 F900 X160.223 Y74.521 E246.48254
G10
G0 F9000 X163.013 Y75.049
G11
G1 F900 X163.181 Y75.500 E246.53957
G1 X163.181 Y76.065 E246.59653
G1 X163.181 Y76.631 E246.65341
G1 X163.181 Y77.197 E246.71029
G1 X163.181 Y77.762 E246.76724
G1 X163.181 Y78.328 E246.82413
G1 X163.181 Y78.894 E246.88101
G1 X163.181 Y79.459 E246.93796
G1 X163.349 Y79.910 E246.99572
G0 F9000 X164.496 Y79.926
G1 F900 X171.350 Y86.780 E248.15888
G0 F9000 X171.350 Y87.346
G1 F900 X164.496 Y80.492 E249.32204
G0 F9000 X164.496 Y81.057
G1 F900 X171.350 Y87.911 E250.48520
G0 F9000 X171.350 Y88.477
G1 F900 X164.496 Y81.623 E251.64836
G0 F9000 X164.496 Y82.189
G1 F900 X171.351 Y89.043 E252.81161
G0 F9000 X171.351 Y89.609
G1 F900 X164.496 Y82.754 E253.97494
G0 F9000 X164.496 Y83.320
G1 F900 X171.351 Y90.175 E255.13828
G0 F9000 X171.351 Y90.740
G1 F900 X164.496 Y83.886 E256.30152
G0 F9000 X164.496 Y84.451
G1 F900 X171.351 Y91.306 E257.46486
G0 F9000 X171.351 Y91.872
G1 F900 X164.496 Y85.017 E258.62819
G0 F9000 X164.496 Y85.583
G1 F900 X171.351 Y92.437 E259.79143
G0 F9000 X171.351 Y93.003
G1 F900 X164.496 Y86.148 E260.95477
G0 F9000 X164.496 Y86.714
G1 F900 X171.351 Y93.570 E262.11818
G0 F9000 X171.351 Y94.135
G1 F900 X164.496 Y87.280 E263.28152
G0 F9000 X164.496 Y87.845
G1 F900 X171.351 Y94.701 E264.44493
G0 F9000 X171.351 Y95.267
G1 F900 X164.496 Y88.411 E265.60835
G0 F9000 X164.496 Y88.977
G1 F900 X171.351 Y95.832 E266.77168
G0 F9000 X171.351 Y96.398
G1 F900 X164.496 Y89.543 E267.93501
G0 F9000 X164.496 Y90.108
G1 F900 X171.351 Y96.964 E269.09843
G0 F9000 X171.351 Y97.529
G1 F900 X164.496 Y90.674 E270.26176
G0 F9000 X164.496 Y91.240
G1 F900 X171.352 Y98.096 E271.42526
G0 F9000 X171.352 Y98.661
G1 F900 X164.496 Y91.805 E272.58877
G0 F9000 X164.496 Y92.371
G1 F900 X171.352 Y99.227 E273.75227
G0 F9000 X171.352 Y99.793
G1 F900 X164.496 Y92.937 E274.91577
G0 F9000 X164.496 Y93.502
G1 F900 X171.352 Y100.358 E276.07927
G0 F9000 X171.352 Y100.924
G1 F900 X164.496 Y94.068 E277.24277
G0 F9000 X164.496 Y94.634
G1 F900 X171.352 Y101.490 E278.40628
G0 F9000 X171.352 Y102.056
G1 F900 X164.496 Y95.199 E279.56986
G0 F9000 X164.496 Y95.765
G1 F900 X171.353 Y102.622 E280.73353
G0 F9000 X171.353 Y103.188
G1 F900 X164.496 Y96.331 E281.89720
G0 F9000 X164.496 Y96.896
G1 F900 X171.353 Y103.753 E283.06088
G0 F9000 X171.353 Y104.319
G1 F900 X164.496 Y97.462 E284.22455
G0 F9000 X164.496 Y98.028
G1 F900 X171.353 Y104.885 E285.38822
G0 F9000 X171.353 Y105.450
G1 F900 X164.496 Y98.594 E286.55181
G0 F9000 X164.496 Y99.159
G1 F900 X171.353 Y106.016 E287.71548
G0 F9000 X171.353 Y106.582
G1 F900 X164.496 Y99.725 E288.87915
G0 F9000 X163.349 Y99.709
G1 F900 X163.181 Y99.258 E288.93618
G1 X163.181 Y98.693 E288.99313
G1 X163.181 Y98.127 E289.05001
G1 X163.181 Y97.561 E289.10690
G1 X163.181 Y96.996 E289.16385
G1 X163.181 Y96.430 E289.22073
G1 X163.181 Y95.864 E289.27762
G1 X163.181 Y95.299 E289.33457
G1 X163.181 Y94.733 E289.39145
G1 X163.181 Y94.167 E289.44833
G1 X163.181 Y93.602 E289.50512
G1 X163.181 Y93.036 E289.56200
G1 X163.181 Y92.470 E289.61888
G1 X163.181 Y91.905 E289.67566
G1 X163.181 Y91.339 E289.73255
G1 X163.181 Y90.773 E289.78943
G1 X163.181 Y90.207 E289.84631
G1 X163.181 Y89.642 E289.90327
G1 X163.181 Y89.076 E289.96015
G1 X163.181 Y88.510 E290.01703
G1 X163.181 Y87.945 E290.07398
G1 X163.181 Y87.379 E290.13087
G1 X163.181 Y86.813 E290.18775
G1 X163.181 Y86.248 E290.24470
G1 X163.181 Y85.682 E290.30158
G1 X163.181 Y85.116 E290.35847
G1 X163.181 Y84.551 E290.41542
G1 X163.181 Y83.985 E290.47230
G1 X163.181 Y83.419 E290.52919
G1 X163.181 Y82.854 E290.58597
G1 X163.181 Y82.288 E290.64285
G1 X163.181 Y81.722 E290.69973
G1 X163.181 Y81.157 E290.75652
G1 X163.181 Y80.591 E290.81340
G1 X163.013 Y80.140 E290.87115
G10
G0 F9000 X164.496 Y79.360
G11
G1 F900 X171.350 Y86.214 E292.03432
G0 F9000 X171.350 Y85.649
G1 F900 X164.496 Y78.795 E293.19748
G0 F9000 X164.496 Y78.229
G1 F900 X171.350 Y85.083 E294.36064
G0 F9000 X171.350 Y84.517
G1 F900 X164.496 Y77.663 E295.52380
G0 F9000 X164.496 Y77.097
G1 F900 X171.349 Y83.951 E296.68688
G0 F9000 X171.349 Y83.385
G1 F900 X164.496 Y76.532 E297.84987
G0 F9000 X164.496 Y75.966
G1 F900 X171.349 Y82.819 E299.01287
G0 F9000 X171.349 Y82.254
G1 F900 X164.496 Y75.400 E300.17594
G0 F9000 X164.496 Y74.835
G1 F900 X171.349 Y81.688 E301.33894
G0 F9000 X171.349 Y81.122
G1 F900 X164.496 Y74.269 E302.50193
G0 F9000 X164.496 Y73.703
G1 F900 X171.349 Y80.557 E303.66501
G10
G0 F9000 X163.013 Y99.939
G11
G1 F900 X163.181 Y100.390 E303.72204
G1 X163.181 Y100.956 E303.77892
G1 X163.181 Y101.521 E303.83570
G1 X163.181 Y102.087 E303.89258
G1 X163.181 Y102.653 E303.94947
G1 X163.181 Y103.218 E304.00625
G1 X163.181 Y103.784 E304.06313
G1 X163.181 Y104.350 E304.12002
G1 X163.181 Y104.915 E304.17697
G1 X163.181 Y105.481 E304.23385
G1 X163.181 Y106.047 E304.29073
G1 X163.181 Y106.612 E304.34769
G1 X163.181 Y107.178 E304.40457
G1 X163.181 Y107.744 E304.46145
G1 X163.181 Y108.309 E304.51840
G1 X163.181 Y108.875 E304.57529
G1 X163.181 Y109.441 E304.63217
G1 X163.181 Y110.006 E304.68912
G1 X163.181 Y110.572 E304.74601
G1 X163.181 Y111.138 E304.80289
G1 X163.181 Y111.704 E304.85977
G1 X163.181 Y112.269 E304.91655
G1 X163.181 Y112.835 E304.97344
G1 X163.181 Y113.401 E305.03032
G1 X163.181 Y113.966 E305.08710
G1 X163.181 Y114.532 E305.14399
G1 X163.181 Y115.098 E305.20087
G1 X163.181 Y115.663 E305.25782
G1 X163.181 Y116.229 E305.31470
G1 X163.181 Y116.795 E305.37159
G1 X163.181 Y117.360 E305.42854
G1 X163.181 Y117.926 E305.48542
G1 X163.181 Y118.492 E305.54230
G1 X163.181 Y119.057 E305.59926
G1 X163.181 Y119.623 E305.65614
G1 X163.181 Y120.189 E305.71302
G1 X163.181 Y120.755 E305.76991
G1 X163.181 Y121.320 E305.82669
G1 X163.181 Y121.886 E305.88357
G1 X163.181 Y122.452 E305.94045
G1 X163.181 Y123.017 E305.99724
G1 X163.181 Y123.583 E306.05412
G1 X163.181 Y124.149 E306.11100
G1 X163.181 Y124.714 E306.16778
G1 X163.181 Y125.280 E306.22467
G1 X163.181 Y125.846 E306.28155
G1 X163.181 Y126.411 E306.33850
G1 X163.181 Y126.977 E306.39539
G1 X163.181 Y127.543 E306.45227
G1 X163.181 Y128.108 E306.50922
G1 X163.181 Y128.674 E306.56610
G1 X163.181 Y129.240 E306.62299
G1 X163.181 Y129.805 E306.67994
G1 X163.181 Y130.371 E306.73682
G1 X163.181 Y130.937 E306.79370
G1 X163.181 Y131.503 E306.85059
G1 X163.181 Y132.068 E306.90737
G1 X163.181 Y132.634 E306.96425
G1 X163.181 Y133.200 E307.02114
G1 X163.181 Y133.765 E307.07792
G1 X163.181 Y134.331 E307.13480
G1 X163.181 Y134.897 E307.19168
G1 X163.181 Y135.462 E307.24864
G1 X163.181 Y136.028 E307.30552
G1 X163.181 Y136.594 E307.36240
G1 X163.181 Y137.159 E307.41935
G1 X163.181 Y137.725 E307.47624
G1 X163.181 Y138.291 E307.53312
G1 X163.181 Y138.856 E307.59007
G1 X163.181 Y139.422 E307.64696
G1 X163.349 Y139.873 E307.70471
G0 F9000 X164.496 Y139.889
G1 F900 X171.359 Y146.752 E308.86940
G0 F9000 X171.359 Y147.317
G1 F900 X164.496 Y140.454 E310.03409
G0 F9000 X164.496 Y141.020
G1 F900 X171.335 Y147.859 E311.19471
G0 F9000 X171.235 Y148.325
G1 F900 X164.496 Y141.586 E312.33835
G0 F9000 X164.496 Y142.151
G1 F900 X171.056 Y148.712 E313.45171
G0 F9000 X170.825 Y149.046
G1 F900 X164.496 Y142.717 E314.52577
G0 F9000 X164.496 Y143.283
G1 F900 X170.543 Y149.330 E315.55198
G0 F9000 X170.204 Y149.557
G1 F900 X164.496 Y143.848 E316.52075
G0 F9000 X164.496 Y144.414
G1 F900 X169.813 Y149.731 E317.42307
G0 F9000 X169.353 Y149.837
G1 F900 X164.496 Y144.980 E318.24733
G0 F9000 X164.496 Y145.545
G1 F900 X168.799 Y149.849 E318.97766
G0 F9000 X168.234 Y149.849
G1 F900 X164.496 Y146.111 E319.61202
G0 F9000 X164.496 Y146.677
G1 F900 X167.668 Y149.849 E320.15033
G0 F9000 X167.102 Y149.849
G1 F900 X164.496 Y147.242 E320.59266
G0 F9000 X164.496 Y147.808
G1 F900 X166.537 Y149.849 E320.93903
G0 F9000 X165.971 Y149.849
G1 F900 X164.496 Y148.374 E321.18935
G0 F9000 X164.496 Y148.940
G1 F900 X165.405 Y149.849 E321.34361
G0 F9000 X164.840 Y149.849
G1 F900 X164.496 Y149.505 E321.40199
G10
G0 F9000 X163.009 Y149.715
G11
G1 F900 X161.899 Y148.605 E321.59036
G0 F9000 X162.464 Y148.605
G1 F900 X163.009 Y149.150 E321.68285
G0 F9000 X162.577 Y149.850
G1 F900 X161.333 Y148.605 E321.89405
G0 F9000 X160.767 Y148.605
G1 F900 X162.012 Y149.850 E322.10533
G0 F9000 X161.446 Y149.850
G1 F900 X160.202 Y148.605 E322.31653
G0 F9000 X159.636 Y148.605
G1 F900 X160.880 Y149.850 E322.52773
G0 F9000 X160.315 Y149.850
G1 F900 X159.070 Y148.605 E322.73902
G0 F9000 X158.505 Y148.605
G1 F900 X159.749 Y149.850 E322.95021
G0 F9000 X159.183 Y149.850
G1 F900 X157.939 Y148.605 E323.16141
G0 F9000 X157.373 Y148.605
G1 F900 X158.618 Y149.850 E323.37270
G0 F9000 X158.052 Y149.850
G1 F900 X156.807 Y148.605 E323.58398
G0 F9000 X156.242 Y148.605
G1 F900 X157.486 Y149.850 E323.79518
G0 F9000 X156.921 Y149.850
G1 F900 X155.676 Y148.605 E324.00646
G0 F9000 X155.110 Y148.605
G1 F900 X156.355 Y149.850 E324.21775
G0 F9000 X155.789 Y149.850
G1 F900 X154.545 Y148.605 E324.42894
G0 F9000 X153.979 Y148.605
G1 F900 X155.224 Y149.850 E324.64023
G0 F9000 X154.658 Y149.850
G1 F900 X153.413 Y148.605 E324.85151
G0 F9000 X152.848 Y148.605
G1 F900 X154.093 Y149.850 E325.06279
G0 F9000 X153.527 Y149.850
G1 F900 X152.282 Y148.605 E325.27408
G0 F9000 X151.716 Y148.605
G1 F900 X152.962 Y149.850 E325.48545
G0 F9000 X152.396 Y149.850
G1 F900 X151.151 Y148.605 E325.69673
G0 F9000 X150.585 Y148.605
G1 F900 X151.830 Y149.850 E325.90801
G0 F9000 X151.264 Y149.850
G1 F900 X150.019 Y148.605 E326.11930
G0 F9000 X149.454 Y148.605
G1 F900 X150.699 Y149.850 E326.33058
G0 F9000 X150.133 Y149.850
G1 F900 X148.888 Y148.605 E326.54186
G0 F9000 X148.322 Y148.605
G1 F900 X149.567 Y149.850 E326.75315
G0 F9000 X149.002 Y149.850
G1 F900 X147.757 Y148.605 E326.96443
G0 F9000 X147.191 Y148.605
G1 F900 X148.436 Y149.850 E327.17571
G0 F9000 X147.870 Y149.850
G1 F900 X146.625 Y148.605 E327.38700
G0 F9000 X146.059 Y148.605
G1 F900 X147.305 Y149.850 E327.59837
G0 F9000 X146.739 Y149.850
G1 F900 X145.494 Y148.605 E327.80965
G0 F9000 X144.928 Y148.605
